images/marker-safe-theater.svg

<svg xmlns="http://www.w3.org/2000/svg" viewBox="0 0 64 64" enable-background="new 0 0 64 64"><style type="text/css">.st0{fill:#385E2F;} .st1{fill:#53A55D;}</style><circle class="st0" cx="32" cy="32" r="28.9"/><path class="st1" d="M7.5 21.279v20.636h48.947v-20.636h-48.947zm9.092 17.147h-5.603v-5.085h5.603v5.085zm0-8.573h-5.603v-5.085h5.603v5.085zm9.091 8.573h-5.603v-5.085h5.603v5.085zm0-8.573h-5.603v-5.085h5.603v5.085zm9.092 8.573h-5.603v-5.085h5.603v5.085zm0-8.573h-5.603v-5.085h5.603v5.085zm9.092 8.573h-5.603v-5.085h5.603v5.085zm0-8.573h-5.603v-5.085h5.603v5.085zm9.091 8.573h-5.603v-5.085h5.603v5.085zm0-8.573h-5.603v-5.085h5.603v5.085zM7.508 43.251v13.313h48.932v-13.313h-48.932zm9.087 9.825h-5.598v-5.065l1.271-1.271h3.057l1.271 1.271v5.065h-.001zm9.087 0h-5.598v-5.065l1.271-1.271h3.057l1.271 1.271-.001 5.065zm9.091 0h-5.598v-5.065l1.271-1.271h3.057l1.271 1.271-.001 5.065zm9.083 0h-5.598v-5.065l1.271-1.271h3.057l1.271 1.271-.001 5.065zm9.088 0h-5.598v-5.065l1.271-1.271h3.057l1.271 1.271-.001 5.065zM48.72 16.763l-16.858-11.327-16.858 11.327h-12.597l2.322 6.087h1.389v-2.781h51.838v2.781h1.315l2.322-6.087h-12.873zm-26.081 0l9.223-6.197 9.223 6.197h-18.446z"/></svg>

<?xml version="1.0" encoding="utf-8"?>
<!-- Generator: Adobe Illustrator 21.0.1, SVG Export Plug-In . SVG Version: 6.00 Build 0)  -->
<svg version="1.1" id="Layer_1" xmlns="http://www.w3.org/2000/svg" xmlns:xlink="http://www.w3.org/1999/xlink" x="0px" y="0px"
	 viewBox="0 0 64 64" style="enable-background:new 0 0 64 64;" xml:space="preserve">
<style type="text/css">
	.st0{fill:#385E2F;}
	.st1{fill:#53A55D;}
</style>
<circle class="st0" cx="32" cy="32" r="28.9"/>
<g>
	<path class="st1" d="M7.5,21.279v20.636h48.947V21.279H7.5z M16.592,38.426h-5.603v-5.085h5.603V38.426z M16.592,29.853h-5.603
		v-5.085h5.603V29.853z M25.683,38.426H20.08v-5.085h5.603V38.426z M25.683,29.853H20.08v-5.085h5.603V29.853z M34.775,38.426
		h-5.603v-5.085h5.603V38.426z M34.775,29.853h-5.603v-5.085h5.603V29.853z M43.867,38.426h-5.603v-5.085h5.603V38.426z
		 M43.867,29.853h-5.603v-5.085h5.603V29.853z M52.958,38.426h-5.603v-5.085h5.603V38.426z M52.958,29.853h-5.603v-5.085h5.603
		V29.853z"/>
	<path class="st1" d="M7.508,43.251v13.313H56.44V43.251H7.508z M16.595,53.076h-5.598v-5.065l1.271-1.271h3.057l1.271,1.271v5.065
		H16.595z M25.682,53.076h-5.598v-5.065l1.271-1.271h3.057l1.271,1.271L25.682,53.076L25.682,53.076z M34.773,53.076h-5.598v-5.065
		l1.271-1.271h3.057l1.271,1.271L34.773,53.076L34.773,53.076z M43.856,53.076h-5.598v-5.065l1.271-1.271h3.057l1.271,1.271
		L43.856,53.076L43.856,53.076z M52.944,53.076h-5.598v-5.065l1.271-1.271h3.057l1.271,1.271L52.944,53.076L52.944,53.076z"/>
	<path class="st1" d="M48.72,16.763L31.862,5.436l0,0l0,0L15.004,16.763H2.407l2.322,6.087h1.389v-2.781h51.838v2.781h1.315
		l2.322-6.087H48.72z M22.639,16.763l9.223-6.197l9.223,6.197H22.639z"/>
</g>
</svg>
